!!!OTL@@DE: Rheinweinlied
!!!COM: Andre, Johann
!!!CDT: 1776
!!!OMD: M&aauml;ssig
!!!LYR: Claudius, Matthias
!!!LDT: 1775
!!!OCL: Erk, Ludwig
!!!GCO: Deutscher Liederschatz, Band 1
**kern	**kern	**kern
*staff3	*staff2	*staff1
*Ipiano	*Ipiano	*Ivox
*clefF4	*clefG2	*clefG2
*k[b-e-]	*k[b-e-]	*k[b-e-]
*B-:	*B-:	*B-:
*M2/4	*M2/4	*M2/4
*MM100	*MM100	*MM100
8F\	8f/	8f/
=1	=1	=1
4B-\	4d/ 4f/ 4b-/	4b-\
4F\	4c/ 4f/ 4a/	4a/
=2	=2	=2
4.B-\	4.d/ 4.f/ 4.b-/	4.b-\
8E-\ 8B-\	8e-/ 8g/	8g/
=3	=3	=3
8BB-\ 8B-\L	8d/ 8f/L	8f/
8BB-\ 8F\	8B-/ 8d/	8d/
8BB-\ 8E-\	8B-/ 8g/	8g/
8BB-\ 8D\J	8B-/ 8f/J	8f/
=4	=4	=4
*	*^	*
4FF/ 4C/	(8f/L	4A\	8f/L
.	8e-/J)	.	8e-/J
*	*v	*v	*
8BB-/L	8B-/ 8d/L	8d/
8BB-/J	8d/ 8f/ 8b-/J	8b-\
=5	=5	=5
8BB-\L	8f/ 8b-/ 8dd/L	8dd\
8B-\	8d/ 8f/ 8b-/	8b-\
8d\	8f/ 8b-/ 8ff/	8ff\
8B-\J	8f/ 8b-/ 8dd/J	8dd\
=6	=6	=6
4.F\	4.f/ 4.a/ 4.cc/	4.cc\
8BB-/	8d/ 8g/ 8b-/	8b-\
=7	=7	=7
*M3/4	*M3/4	*M3/4
8C\L	8c/ 8f/ 8a/L	8a/
8C\ 8A\J	8c/ 8f/J	8f/
4C\ 4G\	4c/ 4en/ 4cc/	4cc\
4C\ 4B-\	4c/ 4e/ 4cc/	4cc\
=8	=8	=8
*M2/4	*M2/4	*M2/4
4F\ 4A\	4c/ 4f/	4f/
8r	8r	8r
8F\ 8A\	8c/ 8f/	8f/
=9	=9	=9
4E-\ 4B-\	4e-/ 4g/	4g/
4C\ 4c\	4e-/ 4a/	4a/
=10	=10	=10
4.BB-\ 4.F\	4.d/ 4.b-/	4.b-\
8F\ 8A\	8f/ 8cc/	8cc\
=11	=11	=11
8B-\L	8f/ 8dd/L	8dd\
8B-\ 8d\	8f/ 8b-/	8b-\
8A\ 8c\	8f/ 8ee-/	8ee-\
8B-\J	8f/ 8dd/J	8dd\
=12	=12	=12
8F\ 8B-\L	8f/ 8dd/L	8dd\
8F\ 8A\J	8f/ 8cc/J	8cc\
8r	8r	8r
8d\ 8f\	8dd\ 8ff\	8ff\
=13	=13	=13
8c\ 8e-\L	8cc\ 8ee-\L	8ee-\
8B-\ 8d\	8b-\ 8dd\	8dd\
8A\ 8c\	8a\ 8cc\	8cc\
8G\ 8B-\J	8g\ 8b-\J	8b-\
=14	=14	=14
8F\ 8A\L	8f/ 8a/L	8a/
8E-\ 8G\	8e-/ 8g/	8g/
8D\ 8F\	8d/ 8f/	8f/
8BB-\ 8F\J	8d/ 8b-/J	8b-\
=15	=15	=15
4E-\ 4G\	4c/ 4g/ 4cc/	4cc\
4F\ 4c\	4e-/ 4f/ 4a/	4a/
=16	=16	=16
4.BB-\ 4.B-\	4.d/ 4.f/ 4.b-/	4b-\
.	.	8r
==	==	==
*-	*-	*-
!!!ENC: Craig Stuart Sapp
!!!END: 2004/05/18/
!!!EFL: 014/651
